X: 1
T: String Quartet in B\b Major opus 50 no 1 mvt 4
C: Franz Joseph Haydn
%%abc-version 2.0
%%abcx-abcm2ps-target-version 5.9.1 (29 Sep 2008)
%%abc-creator hum2abc beta
%%abcx-conversion-date 2021/02/14 14:38:29
%%abc-copyright Copyright (c) 1994, 2000 Center for Computer Assisted Research in the Humanities
%%abc-edited-by Frances Bennion
%%abcx-initial-encoding-date 1997/04/15
%%gracespace 0 6 6
%%humdrum-veritas 4192519689
%%humdrum-veritas-data 1921741843
%%linebreak <none>
%%barnumbers 0
L: 1/8
M: 2/4
N: Derived from op50n1-04.krn
Q: "Finale: Vivace"
%%staves [1 2 3 4]
V: 1
V: 2
V: 3 clef=alto
V: 4 clef=bass
K: Bb
[V:1]f2 dB [I:setbarnb2] |
[V:2]zB, DF |
[V:3]zD, B,D |
[V:4]B,,2 z2 |
[V:1]FB BB |
[V:2]zB, DF |
[V:3]zD, B,D |
[V:4]B,,2 z2 |
[V:1]cc cc |
[V:2]zC EA |
[V:3]zA, CE |
[V:4]F,2 z2 |
[V:1]d/e/d/c/ B/c/d/e/ |
[V:2]zD FD |
[V:3]zB, DB, |
[V:4]B,,2 z2 |
[V:1]f2 dB |
[V:2]zB, DF |
[V:3]zD, B,D |
[V:4]B,,2 z2 |
[V:1]FB BB |
[V:2]zB, DF |
[V:3]zD, B,D |
[V:4]B,2 z2 |
[V:1]cc c/e/d/c/ |
[V:2]zC EA |
[V:3]zA, CE |
[V:4]F,2 z2 |
[V:1]B2 z2 |
[V:2]BF Bd |
[V:3]D2 z2 |
[V:4]B,,2 z2 |
[V:1]z4 |
[V:2]f2 dB |
[V:3]zD, F,B, |
[V:4]zB,, D,F, |
[V:1]zb bb |
[V:2]FB BB |
[V:3]D4 |
[V:4]B,2 G,2 |
[V:1]b/c'/b/c'/ af |
[V:2]cc cc |
[V:3]E4 |
[V:4]F,4 |
[V:1]d'2 z2 |
[V:2]d/e/d/c/ B/c/d/e/ |
[V:3]D2 z2 |
[V:4]B,,2 z2 |
[V:1]z4 |
[V:2]f2 dB |
[V:3]zD, F,B, |
[V:4]zB,, D,F, |
[V:1]zb bb |
[V:2]FB BB |
[V:3]D4 |
[V:4]B,2 G,2 |
[V:1]b/c'/b/c'/ af |
[V:2]cc c/e/d/c/ |
[V:3]E4 |
[V:4]F,4 |
[V:1]b2 z2 |
[V:2]B2 z2 |
[V:3]D2 z2 |
[V:4]B,,2 z2 |
[V:1]cc c/e/d/c/ |
[V:2][E4A4] |
[V:3]F4 |
[V:4]z4 |
[V:1]B2 z2 |
[V:2][D2B2] z2 |
[V:3]D2 z2 |
[V:4]F2 DB, |
[V:1]=ee e/g/f/e/ |
[V:2]B/c/B/c/ BB |
[V:3]z4 |
[V:4]G,4 |
[V:1]f2 z2 |
[V:2]A2 z2 |
[V:3]c2 AF |
[V:4]F,2 z2 |
[V:1]gg g/b/a/g/ |
[V:2]z4 |
[V:3]=EC EC |
[V:4]z4 |
[V:1]a2 z2 |
[V:2]c2 AF |
[V:3]FC FC |
[V:4]z4 |
[V:1]=bb b/d'/c'/b/ |
[V:2]fd =BF |
[V:3]DD DD |
[V:4]z4 |
[V:1]c'2 z2 |
[V:2]=E2 z2 |
[V:3]C2 z2 |
[V:4]C,2 G,,=E,, |
[V:1]b2 c'_d' |
[V:2]f2 _dB |
[V:3]F,3 G,/_A,/ |
[V:4]_D,,4 |
[V:1]f2 =e2 |
[V:2]G4 |
[V:3]B,4 |
[V:4]C,,4 |
[V:1]bb c'_d' |
[V:2]f2 _dB |
[V:3]F,3 G,/_A,/ |
[V:4]_D,,4 |
[V:1]f2 =e2 |
[V:2]G4 |
[V:3]B,4 |
[V:4]C,,4 |
[V:1]b/c'/_d'/c'/ b/_a/g/f/ |
[V:2]ff _dB |
[V:3]F,3 G,/_A,/ |
[V:4]_D,,4 |
[V:1]f4 |
[V:2]G4- |
[V:3]B,4- |
[V:4]C,,4 |
[V:1]=e/f/e/f/ g/a/g/a/ |
[V:2]G4 |
[V:3]B,4 |
[V:4]C,,4 |
[V:1]bb/a/ gg/f/ |
[V:2][B,=E][B,2E2] [EB,] |
[V:3]G,G,2 G,- |
[V:4]C,C,2 C,- |
[V:1]=eg/f/ e/d/c/B/ |
[V:2][B,=E][E2B,2] [B,E] |
[V:3]G,G,2 G, |
[V:4]C,C,2 C, |
[V:1]A2 z2 |
[V:2]c2 AF |
[V:3]A,2 zC |
[V:4]F,A,, F,A, |
[V:1]d2 BG |
[V:2]D2 z2 |
[V:3]CB, zD |
[V:4]zB,, G,B, |
[V:1]=E2 z2 |
[V:2]=e2 cA |
[V:3]DC z=E |
[V:4]zC, A,C |
[V:1]f2 dB |
[V:2]F2 z2 |
[V:3]=ED zF |
[V:4]zD, B,D |
[V:1]g2 =eB |
[V:2]G2 Bc |
[V:3]F=E zG |
[V:4]z=E, C=E |
[V:1]A/c/=B/c/ f/c/B/c/ |
[V:2]A2 z2 |
[V:3]C2 z2 |
[V:4]F2 z2 |
[V:1]c/f/=e/f/ a/f/e/f/ |
[V:2]F/A/^G/A/ c/A/G/A/ |
[V:3][A,2F2] z2 |
[V:4]F,2 z2 |
[V:1]f/a/^g/a/ c'/a/g/a/ |
[V:2]A/f/=e/f/ a/f/e/f/ |
[V:3][F2A,2] z2 |
[V:4]F,2 z2 |
[V:1]c'/a/^g/a/ c'/a/g/a/ |
[V:2]a/f/=e/f/ a/f/e/f/ |
[V:3][F2A,2] z2 |
[V:4]F,2 z2 |
[V:1]c'2 za/b/ |
[V:2]a2 zf/g/ |
[V:3][F2A,2] z2 |
[V:4]F,2 z2 |
[V:1]c'a c'a |
[V:2]af af |
[V:3]z4 |
[V:4]z4 |
[V:1]c'2 z2 |
[V:2]a2 z2 |
[V:3]z4 |
[V:4]z4 |
[V:1]zd' d'd' |
[V:2]A2 ^FD |
[V:3]^F,4 |
[V:4]D/A/B/A/ d/A/B/A/ |
[V:1]d'2 bg |
[V:2]B2 z2 |
[V:3]G,4 |
[V:4]D/B/c/B/ d/B/c/B/ |
[V:1]zc' c'c' |
[V:2]G2 =EC |
[V:3]=E,4 |
[V:4]C/G/A/G/ c/G/A/G/ |
[V:1]c'2 af |
[V:2]A2 z2 |
[V:3]F,4 |
[V:4]C/A/B/A/ c/A/B/A/ |
[V:1]zf' f'f' |
[V:2]f2 d=B |
[V:3]F/=B/A/B/ d/B/A/B/ |
[V:4]D4 |
[V:1]f'd' =bf |
[V:2]F2 z2 |
[V:3]f/=B/A/B/ d/B/A/B/ |
[V:4]D,4 |
[V:1]=e/c/=B/c/ g/c/B/c/ |
[V:2]G4 |
[V:3]c/=E/D/E/ C/E/D/E/ |
[V:4]C,4 |
[V:1]b/a/g/f/ =e/d/c/B/ |
[V:2]=E4 |
[V:3]G/F/=E/D/ C/B,/A,/G,/ |
[V:4]C,4 |
[V:1]Ac d=e |
[V:2]FA BG |
[V:3]F,2 z2 |
[V:4]F,2 z2 |
[V:1]fg ab |
[V:2]A=E FG |
[V:3]z4 |
[V:4]z4 |
[V:1]c'a bc' |
[V:2]AF GA |
[V:3]z4 |
[V:4]z4 |
[V:1]d'=e' f'g' |
[V:2]Bc d=e |
[V:3]z4 |
[V:4]z4 |
[V:1]a'4 |
[V:2]f2 z2 |
[V:3]z4 |
[V:4]z4 |
[V:1]=B,4 |
[V:2]=B,4 |
[V:3]=B,4 |
[V:4]=B,,4 |
[V:1]CF Ac |
[V:2]CA AA |
[V:3]CF FF |
[V:4]C,C, C,C, |
[V:1]fa c'f' |
[V:2]AA AA |
[V:3]FF FF |
[V:4]C,C, C,C, |
[V:1]g4- |
[V:2]B2 GC |
[V:3]=E4- |
[V:4]C,C, C,C, |
[V:1]g4 |
[V:2]B2 GC |
[V:3]E4 |
[V:4]C,C, C,C, |
[V:1]f2 _dB |
[V:2]B4 |
[V:3]F4 |
[V:4]_D,D, D,D, |
[V:1]_g2 ec |
[V:2]A4 |
[V:3]E4 |
[V:4]C,C, C,C, |
[V:1]f2 _dB |
[V:2]B4 |
[V:3]_D4 |
[V:4]_D,D, D,D, |
[V:1]_d'2 bg |
[V:2]=e4 |
[V:3]G,4 |
[V:4]B,,B,, B,,B,, |
[V:1]c'a/f/ bg/d/ |
[V:2]fz dz |
[V:3]A,2 B,2 |
[V:4]A,,2 B,,2 |
[V:1]af/c/ g=e/B/ |
[V:2]cz =Ez |
[V:3]C2 C2 |
[V:4]C,2 C,2 |
[V:1]A2 z2 |
[V:2]FC/A,/ FC/A,/ |
[V:3]c2 AF |
[V:4]F,2 z2 |
[V:1]b2 g=e |
[V:2]=EC/B,/ EC/B,/ |
[V:3]=E2 z2 |
[V:4]F,2 z2 |
[V:1]f2 z2 |
[V:2]FC/A,/ FC/A,/ |
[V:3]C2 A,F, |
[V:4]F,,2 z2 |
[V:1]B2 G=E |
[V:2]=EC/B,/ EC/B,/ |
[V:3]=E,2 z2 |
[V:4]F,,2 z2 |
[V:1]F2 [f2A2] |
[V:2]A,2 [c2A2] |
[V:3]F,2 F,2 |
[V:4]F,,2 F,,2 |
[V:1][f2A2] z2 |
[V:2][F2A2] z2 |
[V:3]F,2 z2 |
[V:4]F,,2 z2 |
[V:1]_a2 fd |
[V:2]c4 |
[V:3]_A4 |
[V:4]z4 |
[V:1]=B2 z2 |
[V:2]_A4 |
[V:3]F4- |
[V:4]D2 =B,_A, |
[V:1]d'2 =bg |
[V:2]=B4 |
[V:3]F4 |
[V:4]G,2 z2 |
[V:1]e2 z2 |
[V:2]c2 z2 |
[V:3]E2 CG, |
[V:4]C2 G,E, |
[V:1]e'2 c'g |
[V:2]c'2 ge |
[V:3]E,2 z2 |
[V:4]C,2 z2 |
[V:1]e2 z2 |
[V:2]c2 z2 |
[V:3]A2 ^FE |
[V:4]z4 |
[V:1]^f2 ac' |
[V:2]A2 cA |
[V:3]D2 z2 |
[V:4]D2 A,^F, |
[V:1]b2 z2 |
[V:2]B2 z2 |
[V:3]G,2 B,D |
[V:4]G,2 z2 |
[V:1]B2 dg |
[V:2]G2 Bd |
[V:3]G2 z2 |
[V:4]z4 |
[V:1]b2 z2 |
[V:2]g2 z2 |
[V:3]E2 B,G, |
[V:4]z4 |
[V:1]b2 g^c |
[V:2]^C2 G2 |
[V:3]E,4 |
[V:4]z4 |
[V:1]d2 z2 |
[V:2]^F2 z2 |
[V:3]D,2 z2 |
[V:4]D,2 A,,^F,, |
[V:1]c'2 d'e' |
[V:2]g2 ec |
[V:3]G,3 A,/B,/ |
[V:4]E,,4 |
[V:1]g2 ^f2 |
[V:2]A4 |
[V:3]C4 |
[V:4]D,,4 |
[V:1]c'c' d'e' |
[V:2]g2 ec |
[V:3]G,3 A,/B,/ |
[V:4]E,,4 |
[V:1]g2 ^f2 |
[V:2]A4 |
[V:3]C4 |
[V:4]D,,4 |
[V:1]c'/d'/e'/d'/ c'/b/a/g/ |
[V:2]c4- |
[V:3]G4 |
[V:4]E4 |
[V:1]g4 |
[V:2]c4- |
[V:3]A4- |
[V:4]D4- |
[V:1]^f4 |
[V:2]c4 |
[V:3]A4 |
[V:4]D4- |
[V:1]f4- |
[V:2]=B4- |
[V:3]_A4- |
[V:4]D2 z2 |
[V:1]f4- |
[V:2]B4- |
[V:3]A4- |
[V:4]D2 EF |
[V:1]f4- |
[V:2]B4- |
[V:3]A4- |
[V:4]C2 =B,2 |
[V:1]f4- |
[V:2]B4- |
[V:3]A4- |
[V:4]=B,B, CD |
[V:1]f4 |
[V:2]B2 cd |
[V:3]A4 |
[V:4]G,4- |
[V:1]e2 d2 |
[V:2]c2 =B2 |
[V:3]G2 F2 |
[V:4]G,4- |
[V:1]c4- |
[V:2]c2 GE |
[V:3]E4- |
[V:4]G,4- |
[V:1]cc de |
[V:2]C4 |
[V:3]E4 |
[V:4]G,4 |
[V:1]B2 A2 |
[V:2]E4- |
[V:3]C4- |
[V:4]F,4- |
[V:1]cc de |
[V:2]E4- |
[V:3]C4- |
[V:4]F,4- |
[V:1]B2 A2 |
[V:2]E4- |
[V:3]C4- |
[V:4]F,4- |
[V:1]e/f/g/f/ e/d/c/B/ |
[V:2]E4- |
[V:3]C4- |
[V:4]F,4- |
[V:1]B4 |
[V:2]E4 |
[V:3]C4 |
[V:4]F,4 |
[V:1]d//e//d//e//d//e//d//e// d//e//f//e//e/=e/ |
[V:2]E4 |
[V:3]C4 |
[V:4]F,4 |
[V:1]f2 dB |
[V:2]D2 z2 |
[V:3]B,2 z2 |
[V:4]B,,2 z2 |
[V:1]FB BB |
[V:2]z2 B2- |
[V:3]z2 G2 |
[V:4]z4 |
[V:1]cc cc |
[V:2]B2 A2 |
[V:3]E2 F2 |
[V:4]z4 |
[V:1]d2 b2 |
[V:2]Bd dd |
[V:3]B,2 z2 |
[V:4]zB, B,B, |
[V:1]b2 a2 |
[V:2]ee ee |
[V:3]z4 |
[V:4]CC CC |
[V:1]_a4 |
[V:2]f4- |
[V:3]z4 |
[V:4]D/E/D/C/ B,/C/D/B,/ |
[V:1]gg gg |
[V:2]f2 e2- |
[V:3]zE EE |
[V:4]E2 z2 |
[V:1]_aa aa |
[V:2]e2 d2 |
[V:3]FF FF |
[V:4]z4 |
[V:1]b4- |
[V:2]_d4 |
[V:3]G/_A/G/F/ E/F/G/E/ |
[V:4]z4 |
[V:1]b2 _a2 |
[V:2]c4 |
[V:3]_A2 z2 |
[V:4]_A,,/B,,/A,,/G,,/ F,,/G,,/F,,/E,,/ |
[V:1]_a4- |
[V:2]B4- |
[V:3]zF DB, |
[V:4]D,,F,, B,,D, |
[V:1]a2 g2 |
[V:2]B4 |
[V:3]E/F/G/F/ E/F/E/D/ |
[V:4]E,2 z2 |
[V:1]g4- |
[V:2]_A4- |
[V:3]CE _Ac |
[V:4]z4 |
[V:1]g2 f2 |
[V:2]A4 |
[V:3]D2 z2 |
[V:4]D,/E,/F,/E,/ D,/E,/D,/C,/ |
[V:1]f/e/d/c/ =B/_A/G/F/ |
[V:2]G4- |
[V:3]z4 |
[V:4]=B,,D, G,=B, |
[V:1]E2 z2 |
[V:2]Gc cc |
[V:3]z2 c2- |
[V:4]C2 _A2 |
[V:1]z4 |
[V:2]dd dd |
[V:3]c2 =B2 |
[V:4]^F2 G2 |
[V:1]z4 |
[V:2]e/f/e/d/ c/d/e/c/ |
[V:3]c4- |
[V:4]C,,C CC |
[V:1]z4 |
[V:2]f/g/f/e/ d/e/f/d/ |
[V:3]c2 =B2 |
[V:4]DD DD |
[V:1]z4 |
[V:2]g4 |
[V:3]B4 |
[V:4]=E/F/E/D/ C/D/E/C/ |
[V:1]c'2 _af |
[V:2]_a2 z2 |
[V:3]_A2 z2 |
[V:4]F2 z2 |
[V:1]=e2 z2 |
[V:2]_d2 BG |
[V:3]B2 G=E |
[V:4]z4 |
[V:1]c'2 _af |
[V:2]_A2 z2 |
[V:3]F2 z2 |
[V:4]z4 |
[V:1]d2 z2 |
[V:2]_c2 _AF |
[V:3]_A2 FD |
[V:4]z4 |
[V:1]b2 ge |
[V:2]G2 z2 |
[V:3]E2 z2 |
[V:4]E,,2 G,,B,, |
[V:1]Be ee |
[V:2]z2 E2 |
[V:3]z2 G2 |
[V:4]E,G,/F,/ E,/D,/C,/B,,/ |
[V:1]ff ff |
[V:2]E2 D2 |
[V:3]c2 _AD |
[V:4]_A,,B,,/C,/ B,,/A,,/G,,/F,,/ |
[V:1]gg gg |
[V:2]EE EE |
[V:3]E/B/c/B/ e/B/c/B/ |
[V:4]E,,2 z2 |
[V:1]_aa aa |
[V:2]FF FF |
[V:3]F/B/c/B/ d/B/c/B/ |
[V:4]z4 |
[V:1]b2 ge |
[V:2]G2 z2 |
[V:3]EG, G,G, |
[V:4]G,,/E,/D,/E,/ B,/E,/D,/E,/ |
[V:1]c2 z2 |
[V:2]e2 c_A |
[V:3]z_A, A,A, |
[V:4]_A,,/E,/D,/E,/ C/E,/D,/E,/ |
[V:1]c'2 af |
[V:2]F2 z2 |
[V:3]zA, A,A, |
[V:4]A,,/F,/=E,/F,/ C/F,/E,/F,/ |
[V:1]d2 z2 |
[V:2]f2 dB |
[V:3]zB, B,B, |
[V:4]B,,/F,/=E,/F,/ D/F,/E,/F,/ |
[V:1]d'2 =bg |
[V:2]G2 z2 |
[V:3]z=B, B,B, |
[V:4]=B,,/G,/^F,/G,/ D/G,/F,/G,/ |
[V:1]e2 z2 |
[V:2]g2 ec |
[V:3]zC CC |
[V:4]C,/G,/^F,/G,/ E/G,/F,/G,/ |
[V:1]e'2 c'_a |
[V:2]_AA2 A- |
[V:3]EE2 E- |
[V:4]C,C, C,C, |
[V:1]ec' _ag |
[V:2]A_A2 A |
[V:3]EE2 E |
[V:4]C,C, C,C, |
[V:1]^fe' c'a |
[V:2][AE][E2A2] [A-E] |
[V:3]^FF2 F- |
[V:4]C,C, C,C, |
[V:1]^fe cA |
[V:2][AE][E2A2] [EA] |
[V:3]F^F2 F |
[V:4]C,C, C,C, |
[V:1]Gd' bg |
[V:2]GG2 G- |
[V:3]GD2 D- |
[V:4]B,,B,, B,,B,, |
[V:1]dB GF |
[V:2]GG2 G |
[V:3]DD2 D |
[V:4]B,,B,, B,,B,, |
[V:1]=E_d' bg |
[V:2][_D=E][D2E2] [E-D] |
[V:3]GG2 G- |
[V:4]B,,B,, B,,B,, |
[V:1]=e_d BG |
[V:2][=ED][E2_D2] [DE] |
[V:3]GG2 G |
[V:4]B,,B,, B,,B,, |
[V:1]Fc' af |
[V:2][FC][F2C2] [F-C] |
[V:3]FF2 F |
[V:4]A,,A,, A,,A,, |
[V:1]ec' ae |
[V:2][FC][F2C2] [CF] |
[V:3]ee2 A |
[V:4]A,,A,, A,,A,, |
[V:1]db fd |
[V:2][FD][F2D2] [FD] |
[V:3]BB2 F |
[V:4]B,,B,, B,,B,, |
[V:1]Bb g=e |
[V:2]BB2 B |
[V:3]=EE2 G |
[V:4]G,,G,, G,,G,, |
[V:1]f2 cA |
[V:2]AA AA |
[V:3]CC CC |
[V:4]F,,2 z2 |
[V:1]f2 dB |
[V:2]BB BB |
[V:3]DD DD |
[V:4]z4 |
[V:1]f2 ec |
[V:2]cc cd/c/ |
[V:3]EE EF/E/ |
[V:4]F,,2 z2 |
[V:1]f2 dB |
[V:2]BB Bc/B/ |
[V:3]DD DE/D/ |
[V:4]z4 |
[V:1]f2 cA |
[V:2]AA AA |
[V:3]CC CC |
[V:4]F,,2 z2 |
[V:1]f2 dB |
[V:2]BB BB |
[V:3]DD DD |
[V:4]z4 |
[V:1]f3 f |
[V:2]c2 z2 |
[V:3]E2 z2 |
[V:4]A,,2 z2 |
[V:1]=ef gf |
[V:2]z4 |
[V:3]z4 |
[V:4]z4 |
[V:1]f2 dB |
[V:2]zB, DF |
[V:3]zD, B,D |
[V:4]B,,2 z2 |
[V:1]FB BB |
[V:2]zB, DF |
[V:3]zD, B,D |
[V:4]B,,2 z2 |
[V:1]cc cc |
[V:2]zC EA |
[V:3]zA, CE |
[V:4]F,2 z2 |
[V:1]d/e/d/c/ B/c/d/e/ |
[V:2]zD FD |
[V:3]zB, DB, |
[V:4]B,,2 z2 |
[V:1]f2 dB |
[V:2]zB, DF |
[V:3]zD, B,D |
[V:4]B,,2 z2 |
[V:1]FB BB |
[V:2]zB, DF |
[V:3]zD, B,D |
[V:4]B,2 z2 |
[V:1]cc c/e/d/c/ |
[V:2]zC EA |
[V:3]zA, CE |
[V:4]F,2 z2 |
[V:1]B2 z2 |
[V:2]BF Bd |
[V:3]D2 z2 |
[V:4]B,,2 z2 |
[V:1]z4 |
[V:2]f2 dB |
[V:3]zD, F,B, |
[V:4]zB,, D,F, |
[V:1]zb bb |
[V:2]FB BB |
[V:3]D4 |
[V:4]B,2 G,2 |
[V:1]b/c'/b/c'/ af |
[V:2]cc cc |
[V:3]E4 |
[V:4]F,4 |
[V:1]d'2 z2 |
[V:2]d/e/d/c/ B/c/d/e/ |
[V:3]D2 z2 |
[V:4]B,,2 z2 |
[V:1]z4 |
[V:2]f2 dB |
[V:3]zD, F,B, |
[V:4]zB,, D,F, |
[V:1]zb bb |
[V:2]FB BB |
[V:3]D4 |
[V:4]B,2 G,2 |
[V:1]b/c'/b/c'/ af |
[V:2]cc c/e/d/c/ |
[V:3]E4 |
[V:4]F,4 |
[V:1]b2 z2 |
[V:2]B2 z2 |
[V:3]D2 z2 |
[V:4]B,,2 z2 |
[V:1]cc c/e/d/c/ |
[V:2][A4E4] |
[V:3]F4 |
[V:4]z4 |
[V:1]B2 z2 |
[V:2][B2D2] z2 |
[V:3]D2 z2 |
[V:4]F2 DB, |
[V:1]=ee e/g/f/e/ |
[V:2]B/c/B/c/ BB |
[V:3]z4 |
[V:4]G,4 |
[V:1]f2 z2 |
[V:2]A2 z2 |
[V:3]z4 |
[V:4]F,2 C,A,, |
[V:1]e2 f_g |
[V:2]B2 _GE |
[V:3]B,3 C/_D/ |
[V:4]_G,,4 |
[V:1]B2 A2 |
[V:2]C4 |
[V:3]E4 |
[V:4]F,,4 |
[V:1]ee f_g |
[V:2]B2 _GE |
[V:3]B,3 C/_D/ |
[V:4]_G,,4 |
[V:1]B2 A2 |
[V:2]C4 |
[V:3]E4 |
[V:4]F,,4 |
[V:1]e/f/_g/f/ e/_d/c/B/ |
[V:2]BB _GE |
[V:3]B,3 C/_D/ |
[V:4]_G,,4 |
[V:1]B4 |
[V:2]C4- |
[V:3]E4- |
[V:4]F,,4 |
[V:1]A/B/A/B/ c/d/c/d/ |
[V:2]C4 |
[V:3]E4 |
[V:4]F,,4- |
[V:1]ee/d/ cc/B/ |
[V:2][AE][A2E2] [E-A] |
[V:3]CC2 C- |
[V:4]F,,F,,2 F,,- |
[V:1]Ac/B/ A/G/F/E/ |
[V:2][EA][A2E2] [EA] |
[V:3]CC2 C |
[V:4]F,,F,,2 F,, |
[V:1]D2 z2 |
[V:2]f2 dB |
[V:3]D2 zF- |
[V:4]B,,D, B,D, |
[V:1]g2 ec |
[V:2]G2 z2 |
[V:3]FE zG- |
[V:4]zE, CE, |
[V:1]A2 z2 |
[V:2]a2 fd |
[V:3]GF zA- |
[V:4]zF, DF, |
[V:1]b2 ge |
[V:2]B2 z2 |
[V:3]AG zB- |
[V:4]zG, EG, |
[V:1]c'2 ae |
[V:2]ze cF |
[V:3]BA zc |
[V:4]zA, FA, |
[V:1]d/f/=e/f/ b/f/e/f/ |
[V:2]B2 z2 |
[V:3]F2 z2 |
[V:4]B,2 z2 |
[V:1]f/b/a/b/ d'/b/a/b/ |
[V:2]B/d/^c/d/ f/d/c/d/ |
[V:3][B2D2] z2 |
[V:4]B,2 z2 |
[V:1]b/d'/^c'/d'/ f'/d'/c'/d'/ |
[V:2]d/b/a/b/ d'/b/a/b/ |
[V:3][D2B2] z2 |
[V:4]B,2 z2 |
[V:1]f'/d'/^c'/d'/ f'/d'/c'/d'/ |
[V:2]d'/b/a/b/ d'/b/a/b/ |
[V:3][B2D2] z2 |
[V:4]B,2 z2 |
[V:1]f'2 zd'/e'/ |
[V:2]d'2 zb/c'/ |
[V:3][D2B2] z2 |
[V:4]B,2 z2 |
[V:1]f'd'/e'/ f'd'/e'/ |
[V:2]d'b/c'/ d'b/c'/ |
[V:3]z4 |
[V:4]z4 |
[V:1]f'2 z2 |
[V:2]d'2 z2 |
[V:3]z4 |
[V:4]z4 |
[V:1]_A,4 |
[V:2]B,4 |
[V:3]F,4 |
[V:4]D,,4 |
[V:1]G,B, EG |
[V:2]B,B,2 B,- |
[V:3]G,G,2 G,- |
[V:4]E,,E,, E,,E,, |
[V:1]Be gb |
[V:2]B,B,2 B, |
[V:3]G,G,2 G, |
[V:4]E,,E,, E,,E,, |
[V:1]_D=E GB |
[V:2][GB,][B,2G2] [G-B,] |
[V:3]_DD2 D- |
[V:4]=E,,E,, E,,E,, |
[V:1]_d=e gb |
[V:2][GB,][B,2G2] [B,G] |
[V:3]D_D2 D |
[V:4]=E,,E,, E,,E,, |
[V:1]FB df |
[V:2]DB2 B- |
[V:3]DD2 D- |
[V:4]F,,F,, F,,F,, |
[V:1]bd' f'b |
[V:2]BB2 B |
[V:3]DD2 B- |
[V:4]F,,F,, F,,F,, |
[V:1]c'4- |
[V:2]e2 cF |
[V:3]BB2 B |
[V:4]F,,F,, F,,F,, |
[V:1]c'4 |
[V:2]e2 cF |
[V:3]AA2 A |
[V:4]F,,F,, F,,F,, |
[V:1]b2 g=e |
[V:2]=E2 GB |
[V:3]GG2 G |
[V:4]G,,G,, G,,G,, |
[V:1]c'2 ae |
[V:2]E2 Ac |
[V:3]FF2 F |
[V:4]A,,A,, A,,A,, |
[V:1]bf/d/ ge/c/ |
[V:2]dz ez |
[V:3]Fz Ez |
[V:4]B,,2 E,2 |
[V:1]fd/B/ ec/A/ |
[V:2]dz cz |
[V:3]Fz Fz |
[V:4]F,2 F,,2 |
[V:1]B2 z2 |
[V:2]BF/D/ BF/D/ |
[V:3]F2 DB, |
[V:4]B,,2 z2 |
[V:1]e2 cA |
[V:2]AF/E/ AF/E/ |
[V:3]A,2 z2 |
[V:4]B,,2 z2 |
[V:1]B2 z2 |
[V:2]BF/D/ BF/D/ |
[V:3]DF DB, |
[V:4]B,,2 z2 |
[V:1]e2 cA |
[V:2]AF/E/ AF/E/ |
[V:3]C2 EF |
[V:4]B,,2 z2 |
[V:1]B2 z2 |
[V:2]D2 z2 |
[V:3]D2 z2 |
[V:4]B,,2 z2 |
[V:1]z4 |
[V:2]z4 |
[V:3]z4 |
[V:4]z4 |
[V:1]z4 |
[V:2]z4 |
[V:3]z4 |
[V:4]z4 |
[V:1]zF Bd |
[V:2]z4 |
[V:3]z4 |
[V:4]z4 |
[V:1]f2 dB |
[V:2]zB, DF |
[V:3]zD, B,D |
[V:4]B,,2 z2 |
[V:1]FB BB |
[V:2]zB, DF |
[V:3]zD, B,D |
[V:4]B,,2 z2 |
[V:1]cc cc |
[V:2]zC EA |
[V:3]zA, CE |
[V:4]F,2 z2 |
[V:1]d/e/d/c/ B/c/d/e/ |
[V:2]zD FD |
[V:3]zB, DB, |
[V:4]B,,2 z2 |
[V:1]f2 dB |
[V:2]zB, DF |
[V:3]zD, B,D |
[V:4]B,,2 z2 |
[V:1]FB BB |
[V:2]zB, DF |
[V:3]zD, B,D |
[V:4]B,2 z2 |
[V:1]cc c/e/d/c/ |
[V:2]zC EF |
[V:3]zA, CE |
[V:4]F,2 z2 |
[V:1]B2 z2 |
[V:2]D2 z2 |
[V:3]D2 z2 |
[V:4]B,,2 z2 |
[V:1]e'2 c'a |
[V:2]cc c/e/d/c/ |
[V:3]A,2 CE |
[V:4]F,2 z2 |
[V:1]f'2 d'b |
[V:2]BD FB |
[V:3]D/E/D/C/ B,z |
[V:4]B,,2 z2 |
[V:1]e'2 c'a |
[V:2]cc c/e/d/c/ |
[V:3]A,2 CE |
[V:4]F,2 z2 |
[V:1]b2 z2 |
[V:2]B2 z2 |
[V:3]D2 z2 |
[V:4]B,,2 z2 |
[V:1]cc c/e/d/c/ |
[V:2]e2 cA |
[V:3]A,2 CE |
[V:4]F,2 z2 |
[V:1]BD FB |
[V:2]f2 dB |
[V:3]D/E/D/C/ B,z |
[V:4]B,,2 z2 |
[V:1]cc c/e/d/c/ |
[V:2]e2 cA |
[V:3]A,2 CE |
[V:4]F,2 z2 |
[V:1]B2 z2 |
[V:2]B2 z2 |
[V:3]D2 z2 |
[V:4]B,,2 z2 |
[V:1]e2 cA |
[V:2]A,2 CE |
[V:3]CC C/E/D/C/ |
[V:4]F,2 z2 |
[V:1]B2 z2 |
[V:2]D2 z2 |
[V:3]B,2 z2 |
[V:4]B,,2 z2 |
[V:1][a2c2F2] z2 |
[V:2][e2F2A,2] z2 |
[V:3][E2A2C2] z2 |
[V:4]F,,/G,,/A,,/B,,/ C,/D,/E,/F,/ |
[V:1][b2B2D2] z2 |]
[V:2][d2F2B,2] z2 |]
[V:3][F2B2B,2] z2 |]
[V:4]B,,2 z2 |]

